src/images/icon/symbol-defs.svg

<svg xmlns="http://www.w3.org/2000/svg" aria-hidden="true" style="position:absolute;width:0;height:0;overflow:hidden">
  <defs>
    <symbol id="logo" viewBox="0 0 41 32">
      <path
        d="M11.996.165v12.091h-1.437L3.877 2.762h-.12v9.494H2.272V.165h1.437l6.706 9.517h.12V.165h1.461zM16.453.165v12.091h-1.485V.165h1.485zM29.298 3.944h-1.485a3.063 3.063 0 0 0-1.251-1.913c-.307-.22-.649-.386-1.024-.496s-.766-.165-1.174-.165c-.742 0-1.415.185-2.018.555-.599.37-1.076.915-1.431 1.635-.351.72-.527 1.604-.527 2.651s.176 1.931.527 2.651c.355.72.832 1.265 1.431 1.635a3.78 3.78 0 0 0 2.018.555c.407 0 .798-.055 1.174-.165s.716-.274 1.024-.49a3.077 3.077 0 0 0 1.251-1.919h1.485c-.112.618-.315 1.171-.611 1.659s-.663.903-1.102 1.246a4.853 4.853 0 0 1-1.479.773 5.589 5.589 0 0 1-1.742.266c-1.046 0-1.976-.252-2.79-.756s-1.455-1.22-1.922-2.149c-.467-.929-.701-2.031-.701-3.306s.234-2.377.701-3.306c.467-.929 1.108-1.645 1.922-2.149S23.318 0 24.364 0c.619 0 1.2.089 1.742.266.547.177 1.04.437 1.479.779.439.339.806.752 1.102 1.24.295.484.499 1.037.611 1.659zM31.697 12.257V.166h7.401v1.299h-5.916v4.086h5.533V6.85h-5.533v4.109h6.012v1.299h-7.497zM1.557 19.908l3.64 10.179h.144l3.641-10.179h1.557L6.036 32H4.503L0 19.908h1.557zM13.933 19.908V32h-1.485V19.908h1.485zM16.911 32V19.908h7.401v1.299h-5.916v4.086h5.533v1.299h-5.533v4.109h6.012V32h-7.497zM29.215 32l-3.353-12.092h1.509l2.563 9.848h.12l2.611-9.848h1.676l2.611 9.848h.12l2.563-9.848h1.509L37.791 32h-1.533l-2.706-9.635h-.096L30.75 32h-1.533z" />
    </symbol>
    <symbol id="burger-menu" viewBox="0 0 32 32">
      <path d="M4 5.333h24V8H4V5.333zm0 9.334h24v2.667H4v-2.667zM4 24h24v2.667H4V24z" />
    </symbol>
    <symbol id="burger-close" viewBox="0 0 32 32">
      <path
        d="m16 14.115 6.6-6.6L24.485 9.4l-6.6 6.6 6.6 6.6-1.885 1.885-6.6-6.6-6.6 6.6L7.515 22.6l6.6-6.6-6.6-6.6L9.4 7.515l6.6 6.6z" />
    </symbol>
    <symbol id="awards" width="32" height="32" viewBox="0 0 32 32" fill="none" xmlns="http://www.w3.org/2000/svg">
      <path
        d="M20.6667 30H11.3333M20.6667 30V16.9326C20.6667 16.6851 20.5683 16.4477 20.3933 16.2726C20.2183 16.0976 19.9809 15.9993 19.7333 15.9993H12.2667C12.0191 15.9993 11.7817 16.0976 11.6067 16.2726C11.4317 16.4477 11.3333 16.6851 11.3333 16.9326V30M20.6667 30H29.0667C29.3142 30 29.5516 29.9017 29.7266 29.7266C29.9017 29.5516 30 29.3142 30 29.0666V25.4887C30 25.2411 29.9017 25.0037 29.7266 24.8286C29.5516 24.6536 29.3142 24.5553 29.0667 24.5553H21.6C21.3525 24.5553 21.1151 24.6536 20.94 24.8286C20.765 25.0037 20.6667 25.2411 20.6667 25.4887V30ZM11.3333 30V22.3774C11.3333 22.1298 11.235 21.8924 11.06 21.7174C10.8849 21.5423 10.6475 21.444 10.4 21.444H2.93333C2.6858 21.444 2.4484 21.5423 2.27337 21.7174C2.09833 21.8924 2 22.1298 2 22.3774V29.0666C2 29.3142 2.09833 29.5516 2.27337 29.7266C2.4484 29.9017 2.6858 30 2.93333 30H11.3333ZM14.1427 5.28557L15.5567 2.28785C15.5948 2.20216 15.657 2.12936 15.7357 2.07828C15.8144 2.02719 15.9062 2 16 2C16.0938 2 16.1856 2.02719 16.2643 2.07828C16.343 2.12936 16.4052 2.20216 16.4433 2.28785L17.8589 5.28557L21.0198 5.76937C21.4258 5.8316 21.5876 6.35429 21.2936 6.65298L19.0069 8.98643L19.5467 12.2813C19.6151 12.7044 19.192 13.028 18.828 12.8273L16 11.2717L13.172 12.8273C12.8096 13.0264 12.3849 12.7044 12.4533 12.2813L12.9931 8.98643L10.7064 6.65298C10.4109 6.35429 10.5742 5.8316 10.9787 5.76937L14.1427 5.28713V5.28557Z"
        stroke="#2D2A22" stroke-width="2" stroke-linecap="round" stroke-linejoin="round" />
    </symbol>
    <symbol id="diagram" width="32" height="32" viewBox="0 0 32 32" fill="none" xmlns="http://www.w3.org/2000/svg">
      <path d="M26.6667 26.6667H5.33337V5.33337" stroke="#2D2A22" stroke-width="2" stroke-linecap="round"
        stroke-linejoin="round" />
      <path d="M5.33337 22L16 12L20 16L26 10" stroke="#2D2A22" stroke-width="2" stroke-linecap="round"
        stroke-linejoin="round" />
    </symbol>

    <symbol id="case" width="32" height="32" viewBox="0 0 32 32" fill="none" xmlns="http://www.w3.org/2000/svg">
      <path
        d="M10.6667 9.33333H21.3334M10.6667 9.33333H5.33341C4.62617 9.33333 3.94789 9.61428 3.4478 10.1144C2.9477 10.6145 2.66675 11.2928 2.66675 12V25.3333C2.66675 26.0406 2.9477 26.7189 3.4478 27.219C3.94789 27.719 4.62617 28 5.33341 28H26.6667C27.374 28 28.0523 27.719 28.5524 27.219C29.0525 26.7189 29.3334 26.0406 29.3334 25.3333V12C29.3334 11.2928 29.0525 10.6145 28.5524 10.1144C28.0523 9.61428 27.374 9.33333 26.6667 9.33333H21.3334H10.6667ZM10.6667 9.33333V4.8C10.6667 4.58783 10.751 4.38434 10.9011 4.23431C11.0511 4.08429 11.2546 4 11.4667 4H20.5334C20.7456 4 20.9491 4.08429 21.0991 4.23431C21.2491 4.38434 21.3334 4.58783 21.3334 4.8V9.33333H10.6667Z"
        stroke="#2D2A22" stroke-width="2" />
    </symbol>
    <symbol id="home" width="32" height="32" viewBox="0 0 32 32" fill="none" xmlns="http://www.w3.org/2000/svg">
      <path
        d="M25.3333 17.3334V25.8667C25.3333 26.0789 25.249 26.2824 25.099 26.4324C24.949 26.5824 24.7455 26.6667 24.5333 26.6667H7.46667C7.25449 26.6667 7.05101 26.5824 6.90098 26.4324C6.75095 26.2824 6.66667 26.0789 6.66667 25.8667V17.3334M4 12.6667L16 5.33337L28 12.6667H4Z"
        stroke="#2D2A22" stroke-width="2" stroke-linecap="round" stroke-linejoin="round" />
    </symbol>
    <symbol id="arrow-left" viewBox="0 0 30 32">
      <path
        d="M20.014 27.334c.163-.179.255-.418.255-.668s-.092-.489-.255-.668L10.877 16l9.137-9.996c.163-.179.255-.418.255-.668s-.092-.489-.255-.668c-.079-.087-.174-.156-.279-.204a.797.797 0 0 0-.664 0 .845.845 0 0 0-.279.204L9.076 15.302c-.171.187-.266.437-.266.698s.095.511.266.698l9.716 10.634c.079.087.174.156.279.204a.797.797 0 0 0 .664 0 .845.845 0 0 0 .279-.204v.002z" />
    </symbol>
    <symbol id="arrow-right" viewBox="0 0 30 32">
      <path
        d="M9.986 4.666c-.164.179-.255.418-.255.668s.092.489.255.668L19.123 16l-9.137 9.996c-.164.179-.255.418-.255.668s.092.489.255.668c.079.087.175.156.28.204a.797.797 0 0 0 .664 0 .859.859 0 0 0 .28-.204l9.716-10.634c.171-.187.266-.437.266-.698s-.096-.511-.266-.698L11.21 4.668c-.079-.087-.175-.156-.28-.204a.797.797 0 0 0-.664 0 .859.859 0 0 0-.28.204v-.002z" />
    </symbol>
    <symbol id="map" viewBox="0 0 32 32">
      <path stroke-linecap="round" stroke-linejoin="round" stroke-width="1.333"
        d="M16 3a9.88 9.88 0 0 0-9.88 9.88v.72c.4 5.413 4.893 9.767 9.88 15.4 5.207-5.88 9.88-10.333 9.88-16.12A9.88 9.88 0 0 0 16 3zm0 5.133a4.763 4.763 0 0 1 4.392 2.936 4.749 4.749 0 0 1-1.034 5.181 4.757 4.757 0 0 1-7.315-.728 4.753 4.753 0 0 1 3.956-7.39z" />
    </symbol>
    <symbol id="phone" viewBox="0 0 32 32">
      <path stroke-linecap="round" stroke-linejoin="round" stroke-width="1.333"
        d="M27.147 20.187a41.182 41.182 0 0 1-4.2-.74 2.073 2.073 0 0 0-2 .387c-.353.36-1.373 1.367-2.433 2.407a19.126 19.126 0 0 1-8.733-8.74c1.033-1.06 2-2.073 2.393-2.427a2.079 2.079 0 0 0 .387-2 41.364 41.364 0 0 1-.74-4.207 1.321 1.321 0 0 0-.996-1.155 1.331 1.331 0 0 0-.537-.025h-5.68a1.001 1.001 0 0 0-.907.913c-.367 5.127 2.493 10.613 3.073 11.667v.04l.08.153a23.624 23.624 0 0 0 8.667 8.667l.293.167c1.333.707 6.633 3.373 11.587 3.007a.999.999 0 0 0 .927-.907v-5.673a1.317 1.317 0 0 0-.667-1.371 1.346 1.346 0 0 0-.513-.162z" />
    </symbol>
    <symbol id="email" viewBox="0 0 32 32">
      <path stroke-linecap="round" stroke-linejoin="round" stroke-width="1.333"
        d="M25.148 27.035c.356-.296.698-.608 1.025-.937M23.879 16a7.874 7.874 0 0 0-7.21-7.837 7.871 7.871 0 1 0 7.212 7.838h-.001z" />
      <path stroke-linecap="round" stroke-linejoin="round" stroke-width="1.333"
        d="M30.333 16a14.323 14.323 0 0 0-5.702-11.467A14.33 14.33 0 0 0 12.039 2.2 14.33 14.33 0 0 0 1.735 17.385a14.32 14.32 0 0 0 2.132 6.224l-.889 5.413 5.413-.889a14.3 14.3 0 0 0 13.187 1.075" />
      <path stroke-linecap="round" stroke-linejoin="round" stroke-width="1.333"
        d="M23.43 18.624c-.963 2.348.605 3.611 1.953 3.918 1.645.373 4.95-1.346 4.95-6.542" />
    </symbol>
    <symbol id="facebook" viewBox="0 0 32 32">
      <path
        d="M0 16.089C0 24.044 5.777 30.658 13.333 32V20.444h-4V16h4v-3.556c0-4 2.577-6.221 6.223-6.221 1.155 0 2.4.177 3.555.355v4.089h-2.044c-1.956 0-2.4.977-2.4 2.223v3.111h4.267l-.711 4.444h-3.556v11.556C26.223 30.66 32 24.046 32 16.09 32 7.241 24.8.001 16 .001S0 7.241 0 16.09z" />
    </symbol>
    <symbol id="instagram" viewBox="0 0 32 32">
      <path
        d="M9.953 1.421c1.564-.072 2.063-.088 6.047-.088s4.483.017 6.045.088c1.563.071 2.629.32 3.563.681a7.218 7.218 0 0 1 2.597 1.693 7.158 7.158 0 0 1 1.691 2.596c.363.933.611 2 .683 3.56.072 1.567.088 2.065.088 6.048 0 3.984-.017 4.483-.088 6.047-.071 1.56-.32 2.627-.683 3.56a7.19 7.19 0 0 1-1.691 2.599 7.187 7.187 0 0 1-2.597 1.691c-.933.363-2 .611-3.56.683-1.565.072-2.064.088-6.048.088s-4.483-.017-6.047-.088c-1.56-.071-2.627-.32-3.56-.683a7.19 7.19 0 0 1-2.599-1.691 7.185 7.185 0 0 1-1.692-2.597c-.361-.933-.609-2-.681-3.56-.072-1.567-.088-2.065-.088-6.048 0-3.984.017-4.483.088-6.045s.32-2.629.681-3.563a7.192 7.192 0 0 1 1.693-2.597 7.195 7.195 0 0 1 2.596-1.692c.933-.361 2-.609 3.56-.681h.001zm11.974 2.64C20.38 3.99 19.916 3.976 16 3.976s-4.38.015-5.927.085c-1.431.065-2.207.304-2.724.505a4.57 4.57 0 0 0-1.687 1.096 4.543 4.543 0 0 0-1.096 1.687c-.201.517-.44 1.293-.505 2.724-.071 1.547-.085 2.011-.085 5.927s.015 4.38.085 5.927c.065 1.431.304 2.207.505 2.724a4.56 4.56 0 0 0 1.096 1.687 4.551 4.551 0 0 0 1.687 1.096c.517.201 1.293.44 2.724.505 1.547.071 2.009.085 5.927.085s4.38-.015 5.927-.085c1.431-.065 2.207-.304 2.724-.505a4.57 4.57 0 0 0 1.687-1.096 4.551 4.551 0 0 0 1.096-1.687c.201-.517.44-1.293.505-2.724.071-1.547.085-2.011.085-5.927s-.015-4.38-.085-5.927c-.065-1.431-.304-2.207-.505-2.724a4.57 4.57 0 0 0-1.096-1.687 4.543 4.543 0 0 0-1.687-1.096c-.517-.201-1.293-.44-2.724-.505zm-7.8 16.46a4.895 4.895 0 0 0 6.749-5 4.891 4.891 0 0 0-1.415-2.981 4.887 4.887 0 0 0-3.94-1.408 4.897 4.897 0 0 0-4.204 6.289 4.898 4.898 0 0 0 2.808 3.101zm-3.458-9.852a7.538 7.538 0 1 1 10.66 10.661 7.538 7.538 0 0 1-10.66-10.661zm14.542-1.085a1.785 1.785 0 0 0-.553-2.948 1.772 1.772 0 0 0-1.967.428 1.781 1.781 0 0 0 1.271 3.006c.464.007.912-.167 1.249-.486z" />
    </symbol>
    <symbol id="twitter" viewBox="0 0 32 32">
      <path stroke-linecap="round" stroke-linejoin="round" stroke-width="2.667"
        d="M32 5.344s-1.027 2.799-2.933 4.531c2.347 13.327-13.787 23.056-26.4 15.459 3.227.133 6.453-.8 8.8-2.665-7.333-1.999-11-9.862-7.333-15.992 3.227 3.465 8.213 5.464 13.2 5.331-1.32-5.597 5.867-8.796 10.267-5.064 1.613 0 4.4-1.599 4.4-1.599z" />
    </symbol>
    <symbol id="youtube" viewBox="0 0 32 32">
      <path
        d="M29.384 5.513C28.518 4.863 26.105 4 15.992 4 5.155 4 3.547 4.991 3.031 5.316.285 7.036.024 14.648 0 16.192c.033 2.039.349 8.822 3.029 10.5.515.323 2.114 1.309 12.963 1.309 10.119 0 12.53-.859 13.392-1.506 2.341-1.755 2.61-7.799 2.616-10.329-.006-2.035-.211-8.846-2.616-10.652zm-1.167 19.291c-.348.261-2.347 1.114-12.226 1.114-9.55 0-11.554-.773-11.933-1.011-.964-.603-1.981-3.803-2.061-8.721.079-4.907 1.11-8.49 2.063-9.085.38-.239 2.391-1.018 11.931-1.018 9.871 0 11.875.858 12.225 1.12.856.642 1.772 4.024 1.785 8.969-.013 5.022-.936 7.995-1.785 8.632zm-5.711-9.623-8.988-5.749a.967.967 0 0 0-1.007-.015c-.154.091-.283.222-.372.382s-.136.341-.137.525v11.5c0 .276.105.541.293.736s.441.305.706.305c.182 0 .36-.052.516-.149l8.989-5.751c.3-.189.483-.527.483-.892s-.183-.704-.482-.892zm-8.505 4.798v-7.812l6.056 3.906-6.056 3.907z" />
    </symbol>
    <symbol id="send" viewBox="0 0 32 32">
      <path
        d="M29.106 15.591 2.965 2.485a.5.5 0 0 0-.71.565l2.694 11.006c.041.166.162.3.325.353l4.616 1.584-4.612 1.584a.49.49 0 0 0-.322.353l-2.7 11.022a.502.502 0 0 0 .71.566l26.141-13.031a.514.514 0 0 0 .225-.222.506.506 0 0 0-.225-.675zM5.338 25.822l1.572-6.425 9.225-3.166a.25.25 0 0 0 .156-.156.253.253 0 0 0-.156-.319L6.91 12.594l-1.566-6.4 19.625 9.841-19.631 9.787z" />
    </symbol>
    <symbol id="close-modal" viewBox="0 0 32 32">
      <path
        d="M24.48 26.373 16 17.88l-8.48 8.493-1.893-1.893L14.12 16 5.627 7.52 7.52 5.627 16 14.12l8.48-8.48 1.88 1.88L17.88 16l8.48 8.48-1.88 1.893z" />
    </symbol>
  </defs>
</svg>

<svg xmlns="http://www.w3.org/2000/svg" aria-hidden="true" style="position:absolute;width:0;height:0;overflow:hidden">
  <defs>
    <symbol id="logo" viewBox="0 0 41 32">
      <path d="M11.996.165v12.091h-1.437L3.877 2.762h-.12v9.494H2.272V.165h1.437l6.706 9.517h.12V.165h1.461zM16.453.165v12.091h-1.485V.165h1.485zM29.298 3.944h-1.485a3.063 3.063 0 0 0-1.251-1.913c-.307-.22-.649-.386-1.024-.496s-.766-.165-1.174-.165c-.742 0-1.415.185-2.018.555-.599.37-1.076.915-1.431 1.635-.351.72-.527 1.604-.527 2.651s.176 1.931.527 2.651c.355.72.832 1.265 1.431 1.635a3.78 3.78 0 0 0 2.018.555c.407 0 .798-.055 1.174-.165s.716-.274 1.024-.49a3.077 3.077 0 0 0 1.251-1.919h1.485c-.112.618-.315 1.171-.611 1.659s-.663.903-1.102 1.246a4.853 4.853 0 0 1-1.479.773 5.589 5.589 0 0 1-1.742.266c-1.046 0-1.976-.252-2.79-.756s-1.455-1.22-1.922-2.149c-.467-.929-.701-2.031-.701-3.306s.234-2.377.701-3.306c.467-.929 1.108-1.645 1.922-2.149S23.318 0 24.364 0c.619 0 1.2.089 1.742.266.547.177 1.04.437 1.479.779.439.339.806.752 1.102 1.24.295.484.499 1.037.611 1.659zM31.697 12.257V.166h7.401v1.299h-5.916v4.086h5.533V6.85h-5.533v4.109h6.012v1.299h-7.497zM1.557 19.908l3.64 10.179h.144l3.641-10.179h1.557L6.036 32H4.503L0 19.908h1.557zM13.933 19.908V32h-1.485V19.908h1.485zM16.911 32V19.908h7.401v1.299h-5.916v4.086h5.533v1.299h-5.533v4.109h6.012V32h-7.497zM29.215 32l-3.353-12.092h1.509l2.563 9.848h.12l2.611-9.848h1.676l2.611 9.848h.12l2.563-9.848h1.509L37.791 32h-1.533l-2.706-9.635h-.096L30.75 32h-1.533z"/>
    </symbol>
    <symbol id="burger-menu" viewBox="0 0 32 32">
      <path d="M4 5.333h24V8H4V5.333zm0 9.334h24v2.667H4v-2.667zM4 24h24v2.667H4V24z"/>
    </symbol>
    <symbol id="burger-close" viewBox="0 0 32 32">
      <path d="m16 14.115 6.6-6.6L24.485 9.4l-6.6 6.6 6.6 6.6-1.885 1.885-6.6-6.6-6.6 6.6L7.515 22.6l6.6-6.6-6.6-6.6L9.4 7.515l6.6 6.6z"/>
    </symbol>
    <symbol id="awards" viewBox="0 0 32 32">
      <path stroke-linecap="round" stroke-linejoin="round" stroke-width="2" d="M20.667 30h-9.333m9.333 0V16.933a.934.934 0 0 0-.933-.933h-7.467a.932.932 0 0 0-.933.933V30m9.333 0h8.4a.934.934 0 0 0 .933-.933v-3.578a.932.932 0 0 0-.933-.933H21.6a.934.934 0 0 0-.933.933V30zm-9.334 0v-7.623a.932.932 0 0 0-.933-.933H2.933a.932.932 0 0 0-.933.933v6.689a.932.932 0 0 0 .933.933h8.4zm2.81-24.714 1.414-2.998A.48.48 0 0 1 16 2a.483.483 0 0 1 .443.288l1.416 2.998 3.161.484c.406.062.568.585.274.884l-2.287 2.333.54 3.295c.068.423-.355.747-.719.546L16 11.272l-2.828 1.556c-.362.199-.787-.123-.719-.546l.54-3.295-2.287-2.333c-.296-.299-.132-.821.272-.884l3.164-.484z"/>
    </symbol>
    <symbol id="diagram" viewBox="0 0 32 32">
      <path stroke-linecap="round" stroke-linejoin="round" stroke-width="2" d="M26.667 26.667H5.334V5.334"/>
      <path stroke-linecap="round" stroke-linejoin="round" stroke-width="2" d="M5.333 22 16 12l4 4 6-6"/>
    </symbol>
    <symbol id="case" viewBox="0 0 32 32">
      <path stroke-width="2" d="M10.667 9.333h10.667m-10.667 0H5.334A2.668 2.668 0 0 0 2.667 12v13.333A2.668 2.668 0 0 0 5.334 28h21.333a2.668 2.668 0 0 0 2.667-2.667V12a2.668 2.668 0 0 0-2.667-2.667h-16zm0 0V4.8a.8.8 0 0 1 .8-.8h9.067a.8.8 0 0 1 .8.8v4.533H10.667z"/>
    </symbol>
    <symbol id="home" viewBox="0 0 32 32">
      <path stroke-linecap="round" stroke-linejoin="round" stroke-width="2" d="M25.333 17.333v8.533a.8.8 0 0 1-.8.8H7.466a.8.8 0 0 1-.8-.8v-8.533M4 12.667l12-7.333 12 7.333H4z"/>
    </symbol>
    <symbol id="arrow-left" viewBox="0 0 30 32">
      <path d="M20.014 27.334c.163-.179.255-.418.255-.668s-.092-.489-.255-.668L10.877 16l9.137-9.996c.163-.179.255-.418.255-.668s-.092-.489-.255-.668c-.079-.087-.174-.156-.279-.204a.797.797 0 0 0-.664 0 .845.845 0 0 0-.279.204L9.076 15.302c-.171.187-.266.437-.266.698s.095.511.266.698l9.716 10.634c.079.087.174.156.279.204a.797.797 0 0 0 .664 0 .845.845 0 0 0 .279-.204v.002z"/>
    </symbol>
    <symbol id="arrow-right" viewBox="0 0 30 32">
      <path d="M9.986 4.666c-.164.179-.255.418-.255.668s.092.489.255.668L19.123 16l-9.137 9.996c-.164.179-.255.418-.255.668s.092.489.255.668c.079.087.175.156.28.204a.797.797 0 0 0 .664 0 .859.859 0 0 0 .28-.204l9.716-10.634c.171-.187.266-.437.266-.698s-.096-.511-.266-.698L11.21 4.668c-.079-.087-.175-.156-.28-.204a.797.797 0 0 0-.664 0 .859.859 0 0 0-.28.204v-.002z"/>
    </symbol>
    <symbol id="map" viewBox="0 0 32 32">
      <path stroke-linecap="round" stroke-linejoin="round" stroke-width="1.333" d="M16 3a9.88 9.88 0 0 0-9.88 9.88v.72c.4 5.413 4.893 9.767 9.88 15.4 5.207-5.88 9.88-10.333 9.88-16.12A9.88 9.88 0 0 0 16 3zm0 5.133a4.763 4.763 0 0 1 4.392 2.936 4.749 4.749 0 0 1-1.034 5.181 4.757 4.757 0 0 1-7.315-.728 4.753 4.753 0 0 1 3.956-7.39z"/>
    </symbol>
    <symbol id="phone" viewBox="0 0 32 32">
      <path stroke-linecap="round" stroke-linejoin="round" stroke-width="1.333" d="M27.147 20.187a41.182 41.182 0 0 1-4.2-.74 2.073 2.073 0 0 0-2 .387c-.353.36-1.373 1.367-2.433 2.407a19.126 19.126 0 0 1-8.733-8.74c1.033-1.06 2-2.073 2.393-2.427a2.079 2.079 0 0 0 .387-2 41.364 41.364 0 0 1-.74-4.207 1.321 1.321 0 0 0-.996-1.155 1.331 1.331 0 0 0-.537-.025h-5.68a1.001 1.001 0 0 0-.907.913c-.367 5.127 2.493 10.613 3.073 11.667v.04l.08.153a23.624 23.624 0 0 0 8.667 8.667l.293.167c1.333.707 6.633 3.373 11.587 3.007a.999.999 0 0 0 .927-.907v-5.673a1.317 1.317 0 0 0-.667-1.371 1.346 1.346 0 0 0-.513-.162z"/>
    </symbol>
    <symbol id="email" viewBox="0 0 32 32">
      <path stroke-linecap="round" stroke-linejoin="round" stroke-width="1.333" d="M25.148 27.035c.356-.296.698-.608 1.025-.937M23.879 16a7.874 7.874 0 0 0-7.21-7.837 7.871 7.871 0 1 0 7.212 7.838h-.001z"/>
      <path stroke-linecap="round" stroke-linejoin="round" stroke-width="1.333" d="M30.333 16a14.323 14.323 0 0 0-5.702-11.467A14.33 14.33 0 0 0 12.039 2.2 14.33 14.33 0 0 0 1.735 17.385a14.32 14.32 0 0 0 2.132 6.224l-.889 5.413 5.413-.889a14.3 14.3 0 0 0 13.187 1.075"/>
      <path stroke-linecap="round" stroke-linejoin="round" stroke-width="1.333" d="M23.43 18.624c-.963 2.348.605 3.611 1.953 3.918 1.645.373 4.95-1.346 4.95-6.542"/>
    </symbol>
    <symbol id="facebook" viewBox="0 0 32 32">
      <path d="M0 16.089C0 24.044 5.777 30.658 13.333 32V20.444h-4V16h4v-3.556c0-4 2.577-6.221 6.223-6.221 1.155 0 2.4.177 3.555.355v4.089h-2.044c-1.956 0-2.4.977-2.4 2.223v3.111h4.267l-.711 4.444h-3.556v11.556C26.223 30.66 32 24.046 32 16.09 32 7.241 24.8.001 16 .001S0 7.241 0 16.09z"/>
    </symbol>
    <symbol id="instagram" viewBox="0 0 32 32">
      <path d="M9.953 1.421c1.564-.072 2.063-.088 6.047-.088s4.483.017 6.045.088c1.563.071 2.629.32 3.563.681a7.218 7.218 0 0 1 2.597 1.693 7.158 7.158 0 0 1 1.691 2.596c.363.933.611 2 .683 3.56.072 1.567.088 2.065.088 6.048 0 3.984-.017 4.483-.088 6.047-.071 1.56-.32 2.627-.683 3.56a7.19 7.19 0 0 1-1.691 2.599 7.187 7.187 0 0 1-2.597 1.691c-.933.363-2 .611-3.56.683-1.565.072-2.064.088-6.048.088s-4.483-.017-6.047-.088c-1.56-.071-2.627-.32-3.56-.683a7.19 7.19 0 0 1-2.599-1.691 7.185 7.185 0 0 1-1.692-2.597c-.361-.933-.609-2-.681-3.56-.072-1.567-.088-2.065-.088-6.048 0-3.984.017-4.483.088-6.045s.32-2.629.681-3.563a7.192 7.192 0 0 1 1.693-2.597 7.195 7.195 0 0 1 2.596-1.692c.933-.361 2-.609 3.56-.681h.001zm11.974 2.64C20.38 3.99 19.916 3.976 16 3.976s-4.38.015-5.927.085c-1.431.065-2.207.304-2.724.505a4.57 4.57 0 0 0-1.687 1.096 4.543 4.543 0 0 0-1.096 1.687c-.201.517-.44 1.293-.505 2.724-.071 1.547-.085 2.011-.085 5.927s.015 4.38.085 5.927c.065 1.431.304 2.207.505 2.724a4.56 4.56 0 0 0 1.096 1.687 4.551 4.551 0 0 0 1.687 1.096c.517.201 1.293.44 2.724.505 1.547.071 2.009.085 5.927.085s4.38-.015 5.927-.085c1.431-.065 2.207-.304 2.724-.505a4.57 4.57 0 0 0 1.687-1.096 4.551 4.551 0 0 0 1.096-1.687c.201-.517.44-1.293.505-2.724.071-1.547.085-2.011.085-5.927s-.015-4.38-.085-5.927c-.065-1.431-.304-2.207-.505-2.724a4.57 4.57 0 0 0-1.096-1.687 4.543 4.543 0 0 0-1.687-1.096c-.517-.201-1.293-.44-2.724-.505zm-7.8 16.46a4.895 4.895 0 0 0 6.749-5 4.891 4.891 0 0 0-1.415-2.981 4.887 4.887 0 0 0-3.94-1.408 4.897 4.897 0 0 0-4.204 6.289 4.898 4.898 0 0 0 2.808 3.101zm-3.458-9.852a7.538 7.538 0 1 1 10.66 10.661 7.538 7.538 0 0 1-10.66-10.661zm14.542-1.085a1.785 1.785 0 0 0-.553-2.948 1.772 1.772 0 0 0-1.967.428 1.781 1.781 0 0 0 1.271 3.006c.464.007.912-.167 1.249-.486z"/>
    </symbol>
    <symbol id="twitter" viewBox="0 0 32 32">
      <path stroke-linecap="round" stroke-linejoin="round" stroke-width="2.667" d="M32 5.344s-1.027 2.799-2.933 4.531c2.347 13.327-13.787 23.056-26.4 15.459 3.227.133 6.453-.8 8.8-2.665-7.333-1.999-11-9.862-7.333-15.992 3.227 3.465 8.213 5.464 13.2 5.331-1.32-5.597 5.867-8.796 10.267-5.064 1.613 0 4.4-1.599 4.4-1.599z"/>
    </symbol>
    <symbol id="youtube" viewBox="0 0 32 32">
      <path d="M29.384 5.513C28.518 4.863 26.105 4 15.992 4 5.155 4 3.547 4.991 3.031 5.316.285 7.036.024 14.648 0 16.192c.033 2.039.349 8.822 3.029 10.5.515.323 2.114 1.309 12.963 1.309 10.119 0 12.53-.859 13.392-1.506 2.341-1.755 2.61-7.799 2.616-10.329-.006-2.035-.211-8.846-2.616-10.652zm-1.167 19.291c-.348.261-2.347 1.114-12.226 1.114-9.55 0-11.554-.773-11.933-1.011-.964-.603-1.981-3.803-2.061-8.721.079-4.907 1.11-8.49 2.063-9.085.38-.239 2.391-1.018 11.931-1.018 9.871 0 11.875.858 12.225 1.12.856.642 1.772 4.024 1.785 8.969-.013 5.022-.936 7.995-1.785 8.632zm-5.711-9.623-8.988-5.749a.967.967 0 0 0-1.007-.015c-.154.091-.283.222-.372.382s-.136.341-.137.525v11.5c0 .276.105.541.293.736s.441.305.706.305c.182 0 .36-.052.516-.149l8.989-5.751c.3-.189.483-.527.483-.892s-.183-.704-.482-.892zm-8.505 4.798v-7.812l6.056 3.906-6.056 3.907z"/>
    </symbol>
    <symbol id="send" viewBox="0 0 32 32">
      <path d="M29.106 15.591 2.965 2.485a.5.5 0 0 0-.71.565l2.694 11.006c.041.166.162.3.325.353l4.616 1.584-4.612 1.584a.49.49 0 0 0-.322.353l-2.7 11.022a.502.502 0 0 0 .71.566l26.141-13.031a.514.514 0 0 0 .225-.222.506.506 0 0 0-.225-.675zM5.338 25.822l1.572-6.425 9.225-3.166a.25.25 0 0 0 .156-.156.253.253 0 0 0-.156-.319L6.91 12.594l-1.566-6.4 19.625 9.841-19.631 9.787z"/>
    </symbol>
    <symbol id="close-modal" viewBox="0 0 32 32">
      <path d="M24.48 26.373 16 17.88l-8.48 8.493-1.893-1.893L14.12 16 5.627 7.52 7.52 5.627 16 14.12l8.48-8.48 1.88 1.88L17.88 16l8.48 8.48-1.88 1.893z"/>
    </symbol>
  </defs>
</svg>
